assets/landing/benefits/efficient.svg

<svg width="40" height="40" viewBox="0 0 40 40" fill="none" xmlns="http://www.w3.org/2000/svg">
<g clip-path="url(#clip0_50_101)">
<path d="M28.1275 0.170006C28.3722 0.311852 28.5615 0.532481 28.6646 0.79585C28.7677 1.05922 28.7784 1.34976 28.695 1.62001L24.1925 16.25H32.5C32.7441 16.2499 32.983 16.3213 33.187 16.4554C33.391 16.5895 33.5513 16.7803 33.6481 17.0045C33.7449 17.2286 33.7739 17.4762 33.7316 17.7166C33.6893 17.9571 33.5775 18.1799 33.41 18.3575L13.41 39.6075C13.2165 39.8133 12.959 39.9475 12.6794 39.9881C12.3999 40.0288 12.1148 39.9736 11.8707 39.8315C11.6265 39.6895 11.4377 39.4689 11.335 39.2057C11.2322 38.9426 11.2217 38.6524 11.305 38.3825L15.8075 23.75H7.5C7.25586 23.7501 7.01704 23.6787 6.81301 23.5446C6.60898 23.4105 6.44869 23.2197 6.35191 22.9955C6.25513 22.7714 6.2261 22.5238 6.26841 22.2834C6.31072 22.0429 6.42252 21.8201 6.58999 21.6425L26.59 0.392506C26.7833 0.187003 27.0404 0.0529272 27.3195 0.0120771C27.5987 -0.028773 27.8834 0.0260054 28.1275 0.167506V0.170006ZM10.3925 21.25H17.5C17.6956 21.25 17.8885 21.2958 18.0632 21.3839C18.2378 21.472 18.3894 21.5999 18.5056 21.7572C18.6219 21.9146 18.6996 22.097 18.7324 22.2898C18.7653 22.4827 18.7525 22.6805 18.695 22.8675L15.275 33.975L29.605 18.75H22.5C22.3044 18.75 22.1115 18.7042 21.9368 18.6161C21.7622 18.528 21.6106 18.4001 21.4944 18.2428C21.3781 18.0854 21.3004 17.903 21.2675 17.7102C21.2347 17.5173 21.2475 17.3195 21.305 17.1325L24.725 6.02501L10.3925 21.25Z" fill="#03E2B3"/>
</g>
<defs>
<clipPath id="clip0_50_101">
<rect width="40" height="40" fill="white"/>
</clipPath>
</defs>
</svg>

<svg xmlns="http://www.w3.org/2000/svg" fill="#03E2B3" viewBox="0 0 40 40">
  <path stroke="none" d="M28.13.17a1.25 1.25 0 0 1 .57 1.45l-4.5 14.63h8.3a1.25 1.25 0 0 1 .91 2.1l-20 21.26a1.25 1.25 0 0 1-2.1-1.23l4.5-14.63H7.5a1.25 1.25 0 0 1-.91-2.1l20-21.26a1.25 1.25 0 0 1 1.54-.22ZM10.39 21.25h7.11a1.25 1.25 0 0 1 1.2 1.62l-3.42 11.1L29.6 18.76H22.5a1.25 1.25 0 0 1-1.2-1.62l3.43-11.1-14.34 15.22Z"/>
</svg>
